svgs/sharp-light/industry.svg

<svg xmlns="http://www.w3.org/2000/svg" viewBox="0 0 576 512"><!--! Font Awesome Pro 6.6.0 by @fontawesome - https://fontawesome.com License - https://fontawesome.com/license (Commercial License) Copyright 2024 Fonticons, Inc. --><path d="M32 32l16 0 128 0 16 0 0 16 0 142.1 152.8-76.4L368 102.1l0 25.9 0 59.1 153.1-73.5 22.9-11 0 25.4 0 128 0 64 0 144 0 16-16 0L48 480l-16 0 0-16 0-80 0-128L32 48l0-16zM64 64l0 192 0 128 0 64 448 0 0-128 0-64 0-102.6L358.9 226.9l-22.9 11 0-25.4 0-58.6L183.2 230.3 160 241.9l0-25.9 0-152L64 64z"/></svg>

<svg xmlns="http://www.w3.org/2000/svg" viewBox="0 0 576 512"><!--! Font Awesome Pro 6.4.2 by @fontawesome - https://fontawesome.com License - https://fontawesome.com/license (Commercial License) Copyright 2023 Fonticons, Inc. --><path d="M32 32H48 176h16V48 190.1l152.8-76.4L368 102.1V128v59.1l153.1-73.5 22.9-11V128 256v64V464v16H528 48 32V464 384 256 48 32zM64 64V256 384v64H512V320 256 153.4L358.9 226.9l-22.9 11V212.5 153.9L183.2 230.3 160 241.9V216 64H64z"/></svg>
